X:44
T: Lyckomarschen
C: Thore H\"ardelin
M: 2/4
R: March
Q:1/8=140
Z: Enligt: Mart Hallek
K: C
%P:A
[V:1](G2 | "C" c2)ce "G"d2df | "C" (ed)cB "Am"(A2G2) | "C"c3e "G"d2ef | "C"g6 (G2|"C"c2)ce \
"G"d2df | "C" (ed)cB "Am"(A2G2) | "C"c3c "G"(Bc)dB |"C"c6 :|
[V:2](E2|G2)Gc B2GB | (cB)AG E4 | G3G B4 |c6 (E2|G2)Gc B2GB |(cB)AG E4 |G3G (GA)BG |E6 :|
%P:B
[V:1]ef| g2e2 "F"a3g | f2e2 "G"d3e | "F"f2d2"G"(g2f2) | "C"e6 ef | g2e2 "F"a3g | (fe)dc "G"(B2A2) | "C"G3c "G"(Bc)dB | "C"c6  :|]
[V:2]cd| e2c2 f3e | c2c2 B3G | A2A2 d4 |c6 cd | e2c2 f3e | (dc)BA G4 | E3G (GA)BG | E6 :|

